packages/web-icons/svgs/logo_visa.svg

<svg xmlns="http://www.w3.org/2000/svg" viewBox="0 0 50 16" class="ridi_icon"><path d="M19.04.282l-6.487 15.475H8.321L5.13 3.408c-.195-.762-.364-1.04-.951-1.36C3.214 1.525 1.626 1.036.228.733l.096-.45h6.811c.87 0 1.65.577 1.847 1.577l1.686 8.956L14.832.283h4.208zm16.583 10.423c.014-4.085-5.649-4.309-5.61-6.134.011-.555.541-1.145 1.695-1.297.577-.074 2.156-.132 3.951.693l.704-3.281C35.399.335 34.158 0 32.615 0c-3.954 0-6.74 2.104-6.765 5.116-.024 2.227 1.99 3.47 3.508 4.211 1.559.758 2.082 1.245 2.077 1.923-.013 1.038-1.244 1.496-2.395 1.514-2.013.033-3.182-.543-4.115-.977l-.725 3.392c.935.429 2.661.803 4.454.821 4.201 0 6.954-2.079 6.969-5.295m10.447 5.053h3.703L46.542.282h-3.419c-.767 0-1.416.447-1.704 1.136l-6.006 14.339h4.204l.834-2.31h5.134l.485 2.311zm-4.467-5.483l2.106-5.812 1.214 5.812h-3.32zM24.76.282l-3.31 15.475h-4.003L20.757.282h4.003z"/></svg>

<?xml version="1.0" encoding="utf-8"?>
<!-- Generator: Adobe Illustrator 22.1.0, SVG Export Plug-In . SVG Version: 6.00 Build 0)  -->
<svg version="1.0" id="Layer_1" xmlns="http://www.w3.org/2000/svg"  x="0px" y="0px"
	 width="50px" height="16px" viewBox="0 0 50 16" style="enable-background:new 0 0 50 16;" xml:space="preserve">
<path d="M19.04,0.282l-6.487,15.475H8.321L5.13,3.408c-0.195-0.762-0.364-1.04-0.951-1.36C3.214,1.525,1.626,1.036,0.228,0.733
	l0.096-0.45h6.811c0.87,0,1.65,0.577,1.847,1.577l1.686,8.956l4.164-10.533H19.04z M35.623,10.705
	c0.014-4.085-5.649-4.309-5.61-6.134c0.011-0.555,0.541-1.145,1.695-1.297c0.577-0.074,2.156-0.132,3.951,0.693l0.704-3.281
	C35.399,0.335,34.158,0,32.615,0c-3.954,0-6.74,2.104-6.765,5.116c-0.024,2.227,1.99,3.47,3.508,4.211
	c1.559,0.758,2.082,1.245,2.077,1.923c-0.013,1.038-1.244,1.496-2.395,1.514c-2.013,0.033-3.182-0.543-4.115-0.977L24.2,15.179
	c0.935,0.429,2.661,0.803,4.454,0.821C32.855,16,35.608,13.921,35.623,10.705 M46.07,15.758h3.703L46.542,0.282h-3.419
	c-0.767,0-1.416,0.447-1.704,1.136l-6.006,14.339h4.204l0.834-2.31h5.134L46.07,15.758z M41.603,10.275l2.106-5.812l1.214,5.812
	H41.603z M24.76,0.282l-3.31,15.475h-4.003l3.31-15.475H24.76z"/>
</svg>
